X:37
T:The Halloween Jig
C:Jean Duval
Z:robin.beech@mcgill.ca
R:jig
M:6/8
L:1/8
K:D
F |: B2B Bcd | c2A ABc | B2G GAB | A2F FEF | B2B Bcd | c2A ABc |
def edc |1 B3 BAF :|2 B3 Bde |: f2f fed | cde Adc | Bcd dcB |
cFF Fde | f2f fed | cde Adc | Bcd cBA |1 B3 Bde :|2 B3 B3 |]
